X:1
T:Mazurka efter Jns Ohlsson fr Tsthult
C:Jns Ohlsson
R:Mazurka
Z:Patrik Mnsson, 2008-07-24,
O:Tsthult, Skne
M:3/4
L:1/8
K:G
|: dedcBA | GD GB d2 | cAF AcA | GD GB d2 |
dedcBA | GD GB d2 | dedcAF | G2 G2 z2 :|
|: dedc B2 | cdcB A2 | ABABAG | AGFE D2 |
dedc B2 | cdcB A2 | dedcAF | G2 G2 z2 :|
